X:6
T:Grants Rant
%%VWML:RutherfordSelect-4785-p6-0
F:http://www.vwml.org/record/RutherfordSelect/4785/p6
Z:Transcribed by David Jacobs February 2016
S:12 Selected Country Dances 1772, John Rutherford
L:1/8
M:C|
K:D
V:1     clef=treble
V:2     clef=bass
V:1 
FG|A3B AFDF|AFdB AFDF|GBGE FAFD|E2EEE3A|FGFAd3f|edcBA2Bc|d2cBc2B2|A2AAA2:|
cd|e3f ecAc|ecaf ecAc|dfdB cecA|B2BBB2Bc|d3B AFDF|GABcd2cB|{B}A2GF EGFE|D2DDD2:|
V:2
z2|D,2D,2D,2D,2|D,2D,2D,2D,2|G,2"7"A,2D,2F,2|A,2A,2A,2A,,2|D,2D,2D,2D,2|A,,2A,G,"6"F,2E,2|D,4"6/4"E,2E,,2|A,,2A,,A,,A,,2:|
z2|A,,2A,,2A,,2A,,2|A,,2A,,2A,,2A,,2|B,,2^G,2A,2A,,2|^E,2E,E,E,2E,2|"6"F,2A,2F,2D,2|E,2E,2"6"F,2A,2|"6/4"A,2A,2"5/3"A,,2A,,2|D,2D,D,D,2:|
W:
W:Hands four quite round .|
W:Back again :|
W:Cross over the two Cu. lead up to top and cast off :|.
W:Hands four at bottom right and left at top:|:

